public/images/multiplatform/hero/desktop.svg

<svg width="48" height="48" viewBox="0 0 48 48" fill="none" xmlns="http://www.w3.org/2000/svg">
    <path fill-rule="evenodd" clip-rule="evenodd" d="M37.125 33H10.875C9.01125 33 7.5 31.4888 7.5 29.625V9.375C7.5 7.51125 9.01125 6 10.875 6H37.125C38.9888 6 40.5 7.51125 40.5 9.375V29.625C40.5 31.4888 38.9888 33 37.125 33ZM37.125 9H10.875C10.6688 9 10.5 9.16875 10.5 9.375V29.625C10.5 29.8313 10.6688 30 10.875 30H37.125C37.3313 30 37.5 29.8313 37.5 29.625V9.375C37.5 9.16875 37.3313 9 37.125 9Z" fill="white"/>
    <path d="M3 37.5H45V40.5H3V37.5Z" fill="white"/>
</svg>

<svg xmlns="http://www.w3.org/2000/svg" width="48" height="48" fill="none" viewBox="0 0 48 48">
    <path fill="#fff" fill-rule="evenodd" d="M37.125 33h-26.25A3.375 3.375 0 0 1 7.5 29.625V9.375A3.375 3.375 0 0 1 10.875 6h26.25A3.375 3.375 0 0 1 40.5 9.375v20.25A3.375 3.375 0 0 1 37.125 33m0-24h-26.25a.376.376 0 0 0-.375.375v20.25c0 .206.169.375.375.375h26.25a.376.376 0 0 0 .375-.375V9.375A.376.376 0 0 0 37.125 9" clip-rule="evenodd"/>
    <path fill="#fff" d="M3 37.5h42v3H3z"/>
</svg>
